packages/kaspersky-hexa-ui-icons/src/iconsSVGs/16/Help.svg

<svg width="16" height="16" viewBox="0 0 16 16" fill="none" xmlns="http://www.w3.org/2000/svg">
<path fill-rule="evenodd" clip-rule="evenodd" d="M7.49657 13.4246L7.49215 13.4199C7.48251 13.4098 7.46089 13.3882 7.42574 13.3585C7.35572 13.2994 7.23037 13.207 7.03618 13.1098C6.65058 12.9168 5.9723 12.694 4.88273 12.694C3.95547 12.694 3.1995 12.7912 2.67985 12.8869C2.42018 12.9348 2.22007 12.9822 2.0877 13.0167C2.02154 13.034 1.97237 13.048 1.94122 13.0572C1.92565 13.0618 1.91459 13.0652 1.90817 13.0672L1.90297 13.0689C1.705 13.1339 1.48756 13.1002 1.31873 12.978C1.14982 12.8558 1.0498 12.6599 1.0498 12.4514V3.67183C1.0498 3.43629 1.17723 3.21918 1.38287 3.10433L1.3846 3.10337L1.38678 3.10216L1.39254 3.09901C1.41662 3.08607 1.44085 3.07343 1.46528 3.06117C1.51193 3.03776 1.57749 3.00622 1.66092 2.96935C1.82768 2.89565 2.06645 2.8004 2.36875 2.70627C2.97296 2.51813 3.83504 2.33327 4.88486 2.33672C6.11112 2.34074 6.99087 2.61958 7.58027 2.92009C7.74306 3.00309 7.88242 3.08709 7.99979 3.16628C8.11716 3.08709 8.25653 3.00309 8.41931 2.92009C9.00871 2.61958 9.88846 2.34074 11.1147 2.33672C12.1645 2.33327 13.0266 2.51813 13.6308 2.70627C13.9331 2.8004 14.1719 2.89565 14.3387 2.96935C14.4221 3.00622 14.4877 3.03776 14.5343 3.06117C14.7738 3.18136 14.9498 3.39096 14.9498 3.67183V12.4514C14.9498 12.6599 14.8498 12.8558 14.6809 12.978C14.512 13.1002 14.2949 13.134 14.0969 13.069L14.0914 13.0672C14.0876 13.066 14.0821 13.0644 14.075 13.0622C14.0702 13.0607 14.0646 13.0591 14.0584 13.0572C14.0272 13.048 13.978 13.034 13.9119 13.0167C13.7795 12.9822 13.5794 12.9348 13.3197 12.8869C12.8001 12.7912 12.0441 12.694 11.1169 12.694C10.0273 12.694 9.349 12.9168 8.96341 13.1098C8.76921 13.207 8.64386 13.2994 8.57384 13.3585C8.53869 13.3882 8.51708 13.4098 8.50743 13.4199L8.50302 13.4246C8.43408 13.509 8.34374 13.5763 8.23828 13.6179C8.22927 13.6214 8.22014 13.6248 8.21091 13.628C8.1416 13.6518 8.07031 13.6633 7.99979 13.6632C7.92927 13.6633 7.85799 13.6518 7.78867 13.628C7.67144 13.5877 7.5714 13.5162 7.49657 13.4246ZM2.3498 11.6263V4.0901C2.46004 4.04643 2.59589 3.99711 2.75524 3.94749C3.25631 3.79147 3.98569 3.63377 4.88059 3.63671C5.90435 3.64007 6.58314 3.87092 6.98978 4.07824C7.14642 4.15811 7.26525 4.23581 7.34978 4.29835V11.8248C6.77604 11.5863 5.97355 11.394 4.88273 11.394C3.86534 11.394 3.02986 11.5005 2.4442 11.6085C2.41198 11.6144 2.38051 11.6204 2.3498 11.6263ZM8.64981 11.8248C9.22354 11.5863 10.026 11.394 11.1169 11.394C12.1342 11.394 12.9697 11.5005 13.5554 11.6085C13.5876 11.6144 13.6191 11.6204 13.6498 11.6263V4.0901C13.5395 4.04643 13.4037 3.99711 13.2443 3.94749C12.7433 3.79147 12.0139 3.63377 11.119 3.63671C10.0952 3.64007 9.41644 3.87092 9.00981 4.07824C8.85317 4.15811 8.73433 4.23581 8.64981 4.29835V11.8248Z" fill="black"/>
</svg>

<svg xmlns="http://www.w3.org/2000/svg" width="16" height="16" fill="none" viewBox="0 0 16 16"><path fill="#000" fill-rule="evenodd" d="m7.4966 13.4246-.0045-.0047a.9.9 0 0 0-.0664-.0614c-.07-.0591-.1953-.1515-.3895-.2487-.3856-.193-1.0639-.4158-2.1535-.4158-.9272 0-1.6832.0972-2.2028.1929a8.4 8.4 0 0 0-.5922.1298 5 5 0 0 0-.1795.0505l-.0052.0017a.65.65 0 0 1-.8532-.6175V3.6718a.65.65 0 0 1 .333-.5675l.0018-.001.0022-.0011.0057-.0032q.0361-.0195.0728-.0378a4.4 4.4 0 0 1 .1956-.0918 6.7 6.7 0 0 1 .7078-.2631c.6043-.1882 1.4663-.373 2.5162-.3696 1.2262.004 2.106.2829 2.6954.5834.1628.083.3021.167.4195.2462a4 4 0 0 1 .4195-.2462c.5894-.3005 1.4692-.5794 2.6954-.5834 1.0498-.0034 1.9119.1814 2.5161.3696.3023.0941.5411.1893.7079.263.0834.037.149.0685.1956.0919.2395.1202.4155.3298.4155.6106v8.7796a.65.65 0 0 1-.8529.6176l-.0055-.0018-.0164-.005-.0166-.005a5 5 0 0 0-.1465-.0405 8.4 8.4 0 0 0-.5922-.1298c-.5196-.0957-1.2756-.1929-2.2028-.1929-1.0896 0-1.7679.2228-2.1535.4158-.1942.0972-.3195.1896-.3896.2487a.9.9 0 0 0-.0664.0614l-.0044.0047a.649.649 0 0 1-.5032.2386.649.649 0 0 1-.5032-.2386m-5.1468-1.7983V4.0901c.1102-.0437.246-.093.4054-.1426.5011-.156 1.2305-.3137 2.1254-.3108 1.0237.0034 1.7025.2342 2.1092.4415.1566.08.2755.1576.36.2202v7.5264c-.5738-.2385-1.3762-.4308-2.467-.4308-1.0175 0-1.853.1065-2.4386.2145a11 11 0 0 0-.0944.0178m6.3.1985c.5737-.2385 1.3762-.4308 2.4671-.4308 1.0173 0 1.8528.1065 2.4385.2145q.0483.0089.0944.0178V4.0901a5.7 5.7 0 0 0-.4055-.1426c-.501-.156-1.2304-.3137-2.1253-.3108-1.0238.0034-1.7026.2342-2.1092.4415a2.56 2.56 0 0 0-.36.2202z"/></svg>
